src/public/images/third-main-block-main-section-background-desk.svg

<svg xmlns="http://www.w3.org/2000/svg" width="834" height="834" fill="none"><circle cx="417" cy="417" r="417" fill="url(#a)"/><path fill="#148581" d="M418.735 38.4c12 0 21.533 1.067 28.6 3.2 7.2 2 12.4 5.6 15.6 10.8 3.2 5.2 4.8 12.533 4.8 22 0 9.867-1.933 17.4-5.8 22.6-3.733 5.067-9.933 8-18.6 8.8v1.2c10.667.933 18.133 4.533 22.4 10.8 4.267 6.133 6.4 14.733 6.4 25.8 0 9.467-1.667 16.8-5 22-3.2 5.2-8.267 8.867-15.2 11-6.8 2-15.733 3-26.8 3-8.933 0-16.733-.067-23.4-.2-6.533 0-12.6-.133-18.2-.4s-11.333-.6-17.2-1l3-21.2c3.2.133 9.333.267 18.4.4 9.2.133 19.867.2 32 .2 5.6 0 10-.533 13.2-1.6 3.2-1.067 5.4-3 6.6-5.8 1.333-2.933 2-7.067 2-12.4 0-5.733-.667-10.067-2-13-1.333-3.067-3.667-5.2-7-6.4-3.2-1.2-7.667-1.867-13.4-2h-50V96.8h49.6c4.933-.133 8.8-.667 11.6-1.6 2.933-.933 5-2.733 6.2-5.4 1.2-2.667 1.8-6.4 1.8-11.2 0-4.933-.667-8.667-2-11.2-1.2-2.667-3.333-4.467-6.4-5.4-3.067-.933-7.333-1.4-12.8-1.4h-19.8c-5.733 0-10.867.067-15.4.2-4.533 0-8.733.133-12.6.4l-3-21.2a212.675 212.675 0 0 1 15.4-1c5.067-.267 10.533-.4 16.4-.4 5.867-.133 12.733-.2 20.6-.2Zm-22.4 1.6v138h-30V40h30Zm31.399 190-.2 108.4c0 3.333 1 5.867 3 7.6 2 1.6 4.933 2.4 8.8 2.4h8l3.4 20c-1.6.8-3.867 1.467-6.8 2a66.624 66.624 0 0 1-9 1.4c-3.067.4-5.667.6-7.8.6-8.934 0-16-2.333-21.2-7-5.2-4.667-7.8-11.2-7.8-19.6V230h29.6Zm5.578 194c2.533 0 4.733.733 6.6 2.2 2 1.467 3.333 3.4 4 5.8l40 130h-31.2l-28.2-101.4-1.6-6.8c-.534-2.4-1-4.667-1.4-6.8h-5.4c-.4 2.133-.867 4.4-1.4 6.8a62.869 62.869 0 0 1-1.6 6.8l-28.2 101.4h-31.4l40.2-130c.666-2.4 1.933-4.333 3.8-5.8 2-1.467 4.266-2.2 6.8-2.2h29Zm21.2 78.6v23h-71.6v-23h71.6Zm20.42 113.4v127c0 7.333-3.667 11-11 11h-16.8c-3.333 0-5.867-.733-7.6-2.2-1.733-1.6-3.333-3.933-4.8-7l-38.2-72.4c-1.6-3.067-3.2-6.467-4.8-10.2a151.127 151.127 0 0 1-3.8-10.8h-2.2c.4 3.6.733 7.267 1 11 .267 3.6.4 7.2.4 10.8V754h-29V627c0-7.333 3.733-11 11.2-11h16.6c3.2 0 5.6.8 7.2 2.4 1.733 1.467 3.4 3.733 5 6.8l37 70.2c1.6 3.067 3.267 6.467 5 10.2 1.733 3.733 3.4 7.6 5 11.6h2.4c-.4-4-.733-7.867-1-11.6-.133-3.867-.2-7.667-.2-11.4l-.2-78.2h28.8Z"/><defs><radialGradient id="a" cx="0" cy="0" r="1" gradientTransform="rotate(23.834 -711.638 1091.8) scale(641.729 1505.98)" gradientUnits="userSpaceOnUse"><stop stop-color="#43A99A"/><stop offset=".316" stop-color="#359284"/><stop offset="1" stop-color="#148783"/></radialGradient></defs></svg>

<svg width="834" height="834" viewBox="0 0 834 834" fill="none" xmlns="http://www.w3.org/2000/svg">
<circle cx="417" cy="417" r="417" fill="url(#paint0_radial_6_2651)"/>
<path d="M418.735 38.4C430.735 38.4 440.268 39.4667 447.335 41.6C454.535 43.6 459.735 47.2 462.935 52.4C466.135 57.6 467.735 64.9333 467.735 74.4C467.735 84.2667 465.802 91.8 461.935 97C458.202 102.067 452.002 105 443.335 105.8V107C454.002 107.933 461.468 111.533 465.735 117.8C470.002 123.933 472.135 132.533 472.135 143.6C472.135 153.067 470.468 160.4 467.135 165.6C463.935 170.8 458.868 174.467 451.935 176.6C445.135 178.6 436.202 179.6 425.135 179.6C416.202 179.6 408.402 179.533 401.735 179.4C395.202 179.4 389.135 179.267 383.535 179C377.935 178.733 372.202 178.4 366.335 178L369.335 156.8C372.535 156.933 378.668 157.067 387.735 157.2C396.935 157.333 407.602 157.4 419.735 157.4C425.335 157.4 429.735 156.867 432.935 155.8C436.135 154.733 438.335 152.8 439.535 150C440.868 147.067 441.535 142.933 441.535 137.6C441.535 131.867 440.868 127.533 439.535 124.6C438.202 121.533 435.868 119.4 432.535 118.2C429.335 117 424.868 116.333 419.135 116.2H369.135V96.8H418.735C423.668 96.6667 427.535 96.1333 430.335 95.2C433.268 94.2667 435.335 92.4667 436.535 89.8C437.735 87.1333 438.335 83.4 438.335 78.6C438.335 73.6667 437.668 69.9333 436.335 67.4C435.135 64.7333 433.002 62.9333 429.935 62C426.868 61.0667 422.602 60.6 417.135 60.6C409.668 60.6 403.068 60.6 397.335 60.6C391.602 60.6 386.468 60.6667 381.935 60.8C377.402 60.8 373.202 60.9333 369.335 61.2L366.335 40C371.668 39.4667 376.802 39.1333 381.735 39C386.802 38.7333 392.268 38.6 398.135 38.6C404.002 38.4667 410.868 38.4 418.735 38.4ZM396.335 40V178H366.335V40H396.335ZM427.734 230L427.534 338.4C427.534 341.733 428.534 344.267 430.534 346C432.534 347.6 435.467 348.4 439.334 348.4H447.334L450.734 368.4C449.134 369.2 446.867 369.867 443.934 370.4C441 371.067 438 371.533 434.934 371.8C431.867 372.2 429.267 372.4 427.134 372.4C418.2 372.4 411.134 370.067 405.934 365.4C400.734 360.733 398.134 354.2 398.134 345.8V230H427.734ZM433.312 424C435.845 424 438.045 424.733 439.912 426.2C441.912 427.667 443.245 429.6 443.912 432L483.912 562H452.712L424.512 460.6C423.978 458.333 423.445 456.067 422.912 453.8C422.378 451.4 421.912 449.133 421.512 447H416.112C415.712 449.133 415.245 451.4 414.712 453.8C414.312 456.067 413.778 458.333 413.112 460.6L384.912 562H353.512L393.712 432C394.378 429.6 395.645 427.667 397.512 426.2C399.512 424.733 401.778 424 404.312 424H433.312ZM454.512 502.6V525.6H382.912V502.6H454.512ZM474.932 616V743C474.932 750.333 471.265 754 463.932 754H447.132C443.799 754 441.265 753.267 439.532 751.8C437.799 750.2 436.199 747.867 434.732 744.8L396.532 672.4C394.932 669.333 393.332 665.933 391.732 662.2C390.265 658.467 388.999 654.867 387.932 651.4H385.732C386.132 655 386.465 658.667 386.732 662.4C386.999 666 387.132 669.6 387.132 673.2V754H358.132V627C358.132 619.667 361.865 616 369.332 616H385.932C389.132 616 391.532 616.8 393.132 618.4C394.865 619.867 396.532 622.133 398.132 625.2L435.132 695.4C436.732 698.467 438.399 701.867 440.132 705.6C441.865 709.333 443.532 713.2 445.132 717.2H447.532C447.132 713.2 446.799 709.333 446.532 705.6C446.399 701.733 446.332 697.933 446.332 694.2L446.132 616H474.932Z" fill="#148581"/>
<defs>
<radialGradient id="paint0_radial_6_2651" cx="0" cy="0" r="1" gradientUnits="userSpaceOnUse" gradientTransform="translate(380.5 380.681) rotate(23.8344) scale(641.729 1505.98)">
<stop stop-color="#43A99A"/>
<stop offset="0.316369" stop-color="#359284"/>
<stop offset="1" stop-color="#148783"/>
</radialGradient>
</defs>
</svg>
